X: 1
T: Cat In The Fiddle Case, The
M: 4/4
L: 1/8
R: barndance
K: Gmaj
|:dc|B2BA GABG|ABAG E2DE|G2GA BcdG|BAAG A2dc|
BcdB GABG|ABAG E2DE|G2GA BedB|AGGF G2:|
|:Bd|geed efge|dedc B2cd|eGdG cABG|ABAG A2dc|
BcdB GABG|EFGE D2DE|G2GA BedB|AGGF G2:|
